flaticon/gastronomy/hazelnut.svg

<svg xmlns="http://www.w3.org/2000/svg" width="32" height="32" viewBox="0 0 24 24">
    <path d="M 19.730469 4.21875 C 15.816406 0.308594 11.359375 -0.9375 7.167969 0.707031 L 6.628906 0.921875 L 6.945312 1.410156 C 7.089844 1.632812 7.234375 1.84375 7.382812 2.042969 C 6.289062 2.59375 5.242188 3.367188 4.253906 4.355469 C 2.164062 6.445312 0.691406 10 0.207031 14.117188 C -0.125 16.964844 0.09375 19.511719 0.761719 21.128906 C 0.886719 21.566406 1.082031 21.929688 1.355469 22.195312 C 1.375 22.210938 1.394531 22.21875 1.410156 22.234375 C 1.433594 22.257812 1.457031 22.285156 1.480469 22.308594 C 1.484375 22.316406 1.492188 22.324219 1.496094 22.328125 C 1.5 22.335938 1.5 22.339844 1.507812 22.34375 C 1.507812 22.347656 1.511719 22.351562 1.515625 22.351562 C 1.515625 22.355469 1.515625 22.355469 1.515625 22.355469 C 1.519531 22.359375 1.519531 22.359375 1.523438 22.359375 C 1.523438 22.363281 1.527344 22.363281 1.53125 22.367188 C 1.535156 22.371094 1.542969 22.378906 1.546875 22.386719 C 1.585938 22.429688 1.640625 22.464844 1.683594 22.5 C 1.691406 22.507812 1.699219 22.515625 1.707031 22.523438 C 2.746094 23.457031 4.679688 23.984375 7.199219 24 C 7.238281 24 7.273438 24 7.3125 24 C 11.296875 24 16.605469 22.675781 19.585938 19.691406 C 20.601562 18.675781 21.394531 17.589844 21.949219 16.453125 C 22.160156 16.59375 22.378906 16.730469 22.609375 16.871094 L 23.097656 17.160156 L 23.296875 16.628906 C 24.855469 12.484375 23.585938 8.078125 19.730469 4.21875 Z M 18.914062 19.019531 C 16.097656 21.835938 10.988281 23.066406 7.207031 23.050781 C 6.5625 23.046875 5.960938 23 5.402344 22.925781 C 8.003906 22.410156 11.238281 20.734375 12.726562 18.300781 C 12.863281 18.074219 12.792969 17.78125 12.570312 17.644531 C 12.347656 17.507812 12.054688 17.578125 11.917969 17.800781 C 10.488281 20.136719 7.035156 21.824219 4.523438 22.105469 C 3.433594 22.226562 2.597656 22.078125 2.203125 21.695312 C 2.199219 21.691406 2.191406 21.683594 2.1875 21.675781 C 1.914062 21.09375 3.496094 17.640625 5.765625 15.957031 C 5.976562 15.800781 6.019531 15.503906 5.863281 15.292969 C 5.707031 15.082031 5.410156 15.039062 5.199219 15.195312 C 3.648438 16.347656 2.199219 18.472656 1.5625 20.09375 C 1.550781 19.8125 1.558594 19.507812 1.59375 19.179688 C 1.875 16.667969 3.5625 13.214844 5.898438 11.785156 C 6.125 11.648438 6.195312 11.355469 6.054688 11.132812 C 5.917969 10.910156 5.628906 10.839844 5.402344 10.976562 C 3.269531 12.28125 1.71875 14.921875 1.019531 17.308594 C 0.984375 16.347656 1.027344 15.304688 1.152344 14.226562 C 1.601562 10.378906 3.015625 6.9375 4.925781 5.027344 C 5.890625 4.0625 6.917969 3.316406 7.980469 2.804688 C 9.480469 4.558594 10.902344 5.125 11.816406 5.296875 C 11.710938 5.441406 11.625 5.582031 11.535156 5.726562 C 11.484375 5.800781 11.429688 5.875 11.386719 5.953125 C 11.324219 6.050781 11.277344 6.148438 11.222656 6.246094 C 11.160156 6.363281 11.089844 6.480469 11.03125 6.597656 C 11.003906 6.648438 10.984375 6.703125 10.960938 6.753906 C 10.886719 6.914062 10.8125 7.070312 10.75 7.222656 C 10.746094 7.242188 10.738281 7.257812 10.734375 7.277344 C 9.699219 9.929688 10.46875 12.046875 10.683594 12.546875 L 10.757812 12.71875 L 10.933594 12.792969 C 11.394531 12.992188 13.253906 13.675781 15.640625 12.941406 C 15.644531 12.941406 15.644531 12.941406 15.644531 12.941406 C 15.816406 12.886719 15.992188 12.824219 16.171875 12.753906 C 16.199219 12.746094 16.226562 12.738281 16.253906 12.726562 C 16.386719 12.671875 16.527344 12.605469 16.664062 12.542969 C 16.738281 12.507812 16.808594 12.480469 16.882812 12.445312 C 16.988281 12.390625 17.101562 12.324219 17.210938 12.265625 C 17.316406 12.207031 17.417969 12.15625 17.527344 12.09375 C 17.601562 12.046875 17.679688 11.988281 17.757812 11.9375 C 17.898438 11.851562 18.039062 11.765625 18.179688 11.664062 C 18.363281 12.65625 19.023438 14.253906 21.167969 15.894531 C 20.65625 16.984375 19.898438 18.035156 18.914062 19.019531 Z M 22.59375 15.746094 C 22.453125 15.652344 22.328125 15.5625 22.199219 15.472656 L 22.035156 15.351562 C 18.824219 13.03125 19.054688 10.917969 19.070312 10.804688 L 19.285156 9.527344 L 19.277344 9.53125 L 18.292969 10.367188 C 15.160156 13.03125 12.269531 12.273438 11.484375 11.992188 C 11.433594 11.84375 11.363281 11.621094 11.300781 11.339844 C 11.222656 10.960938 11.15625 10.476562 11.167969 9.90625 C 11.195312 8.628906 11.609375 6.945312 13.109375 5.183594 L 13.941406 4.199219 L 12.710938 4.398438 L 12.671875 4.40625 C 12.667969 4.40625 12.652344 4.410156 12.632812 4.410156 C 12.625 4.410156 12.617188 4.410156 12.609375 4.410156 C 12.597656 4.414062 12.585938 4.414062 12.570312 4.414062 C 12.148438 4.429688 10.425781 4.335938 8.488281 1.921875 L 8.351562 1.753906 C 8.261719 1.636719 8.171875 1.519531 8.078125 1.390625 C 11.730469 0.214844 15.609375 1.441406 19.058594 4.890625 C 22.464844 8.296875 23.707031 12.128906 22.59375 15.746094 Z M 22.59375 15.746094"/>
</svg>

<svg xmlns="http://www.w3.org/2000/svg" width="32" height="32" viewBox="0 0 24 24">
    <path d="M19.73 4.219C15.816.309 11.36-.938 7.168.707l-.54.215.317.488c.145.223.29.434.438.633-1.094.55-2.14 1.324-3.13 2.312C2.165 6.445.692 10 .208 14.117c-.332 2.848-.113 5.395.555 7.012.125.437.32.8.593 1.066.02.016.04.024.055.04.024.023.047.05.07.074.004.007.012.015.016.02.004.007.004.01.012.015 0 .004.004.008.008.008v.003c.004.004.004.004.007.004 0 .004.004.004.008.008s.012.012.016.02c.039.043.094.078.137.113l.023.023c1.04.934 2.973 1.461 5.492 1.477h.114c3.984 0 9.292-1.324 12.273-4.309 1.016-1.015 1.809-2.101 2.363-3.238.211.14.43.277.66.418l.489.29.199-.532c1.558-4.145.289-8.55-3.567-12.41zm-.816 14.8c-2.816 2.817-7.926 4.047-11.707 4.032a14.336 14.336 0 0 1-1.805-.125c2.602-.516 5.836-2.192 7.325-4.625a.475.475 0 1 0-.809-.5c-1.43 2.336-4.883 4.023-7.395 4.304-1.09.122-1.925-.027-2.32-.41-.004-.004-.012-.011-.015-.02-.274-.581 1.308-4.034 3.578-5.718a.474.474 0 1 0-.567-.762c-1.55 1.153-3 3.278-3.636 4.899a6.161 6.161 0 0 1 .03-.914c.282-2.512 1.97-5.965 4.305-7.395a.468.468 0 0 0 .157-.652.474.474 0 0 0-.653-.156C3.27 12.28 1.72 14.922 1.02 17.309c-.036-.961.007-2.004.132-3.082.45-3.848 1.864-7.29 3.774-9.2.965-.965 1.992-1.71 3.054-2.222 1.5 1.754 2.922 2.32 3.836 2.492-.105.144-.191.285-.28.43-.052.074-.106.148-.15.226-.062.098-.109.195-.163.293-.063.117-.133.234-.192.352-.027.05-.047.105-.07.156-.074.16-.149.316-.211.469-.004.02-.012.035-.016.054-1.035 2.653-.265 4.77-.05 5.27l.074.172.176.074c.46.2 2.32.883 4.707.148h.004c.171-.054.347-.117.527-.187a.673.673 0 0 0 .082-.027c.133-.055.273-.122.41-.184.074-.035.145-.063.219-.098.105-.054.219-.12.328-.18.105-.058.207-.109.316-.171.075-.047.153-.106.23-.156.141-.086.282-.172.423-.274.183.992.843 2.59 2.988 4.23-.512 1.09-1.27 2.141-2.254 3.126zm3.68-3.273c-.14-.094-.266-.184-.395-.273l-.164-.121c-3.21-2.32-2.98-4.434-2.965-4.547l.215-1.278-.008.004-.984.836c-3.133 2.664-6.023 1.906-6.809 1.625a6.072 6.072 0 0 1-.183-.652 6.413 6.413 0 0 1-.133-1.434c.027-1.277.441-2.96 1.941-4.722l.832-.985-1.23.2-.04.007c-.003 0-.019.004-.038.004h-.024c-.011.004-.023.004-.039.004-.422.016-2.144-.078-4.082-2.492l-.136-.168c-.09-.117-.18-.234-.274-.363 3.652-1.176 7.531.05 10.98 3.5 3.407 3.406 4.649 7.238 3.536 10.855zm0 0"/>
</svg>
